X: 34250
T: Referendum, The
R: reel
M: 4/4
K: Gmajor
|GDDG GEEG|GDDG ABdG|e3 d4 B-|Bdde FG A2|
GDDG GEEG|GDDG ABdg|e2 dBd2 e F-|F G2 A2 BBA|
GDDG GEEG|GDDG ABdG|e3 d4 B-|BgdB cBAF|
GDDG GEEG|GDDG ABdg|e2 dBd2 e F-|F G2 A2 BBG|
|:c2 eg gffe|edde B2 AG|AD D/D/D ADcD|BGGA BGdG|
c2 eg gffe|edde B2 AG|F A2 c2 d2 f-|f g2 [1 a2 fdB:|2 a-a4|

